X: 22
T: Miss Piggots Whim
P: P.11 #2
%R: hornpipe, reel
B: "Twenty Four Favourite Dances for the Year 1784", Thomas Straight, ed. p.11 #2
F: http://www.vwml.org/browse/browse-collections-dance-tune-books/browse-straights1784#
Z: 2014 John Chambers <jc:trillian.mit.edu>
M: 2/4
L: 1/8
K: G
% - - - - - - - - - - - - - - - - - - - - - - - - - - - - -
|:\
g>GG>G | G2e2 | d>B A>G | TA4 |\
g>GG>G | TG2b2 | a>gf>e | Td4 :|
|:\
d>BB>B | ecTc2 | c>AA>A | dBTg2 |\
(GD)TB2 | ADTc2 | BdFA | G4 :|
% - - - - - - - - - - Dance description - - - - - - - - - -
%%begintext align
%% The first Cu: cast back and lead thro the 3d
%% Cu: .|. cast up to the top and lead thro the 2d
%% Cu :|. cross over Foot it .|: right Hand and
%% left :|:
%%endtext

%%sep 2 1 500
%%sep 1 1 500

